X:3476
T:Lady Egermonts Waltz. CJF.239
O:england
M:3/8
L:1/8
Q:32
S: C.J.Fox MS, 1829/33, Beverley,E.Yorks.
R:Waltz
A:East Yorkshire
B:Kidson Coll.Mitchell Lib.M1805
N:"1833" is written after the tune, on the stave
K:F
c|A/B/ cf|A/B/ cf|e/f/g/a/b/g/|afc|\
A/B/ cf|A/B/ cf|e/f/g/a/b/g/|f2:||:c|
b/g/ gb|a/g/ fa|g/f/e/d/g/a/|fcc|\
b/a/ gb|a/g/ fa|g/f/e/f/g/a/|f2:||:A/B/|
cAf|dBG|EcB|BA A/B/|cAf|dBG|Ec/B/A/G/|F2:||


